images/socials/twitch.svg

<svg width="24" height="24" viewBox="-2.88 -2.88 29.76 29.76" fill="none" xmlns="http://www.w3.org/2000/svg"><path d="M12 6.5h1.5V11H12V6.5Zm5.25 0V11h-1.5V6.5h1.5Z" fill="#fff"/><path fill-rule="evenodd" clip-rule="evenodd" d="M3 5.75 6.75 2H21v10.5l-6.75 6.75h-3L7.5 23v-3.75H3V5.75Zm16.5 6-3 3h-3l-3 3v-3h-3V3.5h12v8.25ZM12 6.5h1.5V11H12V6.5Zm5.25 0V11h-1.5V6.5h1.5Z" fill="#b3b3b3"/></svg>

<svg width="24px" height="24px" viewBox="-2.88 -2.88 29.76 29.76" fill="none" xmlns="http://www.w3.org/2000/svg"><g id="SVGRepo_bgCarrier" stroke-width="0"></g><g id="SVGRepo_tracerCarrier" stroke-linecap="round" stroke-linejoin="round"></g><g id="SVGRepo_iconCarrier"> <path d="M12 6.5H13.5V11H12V6.5ZM17.25 6.5V11H15.75V6.5H17.25Z" fill="#ffffff"></path> <path fill-rule="evenodd" clip-rule="evenodd" d="M3 5.75L6.75 2H21V12.5L14.25 19.25H11.25L7.5 23V19.25H3V5.75ZM19.5 11.75L16.5 14.75H13.5L10.5 17.75V14.75H7.5V3.5H19.5V11.75ZM12 6.5H13.5V11H12V6.5ZM17.25 6.5V11H15.75V6.5H17.25Z" fill="#b3b3b3"></path> </g></svg>
